LUT_pack/webcam_color_corrected.cube
LUT_3D_SIZE 16
0.000000 0.000000 0.000000
0.028185 0.006145 0.006886
0.085990 0.024278 0.018065
0.175357 0.048943 0.038418
0.284567 0.072451 0.058890
0.381664 0.092198 0.077447
0.454740 0.107641 0.093101
0.514727 0.120871 0.106375
0.562848 0.132596 0.117624
0.607652 0.143164 0.128335
0.649611 0.153046 0.138238
0.687797 0.161480 0.146841
0.723592 0.169246 0.154590
0.760366 0.176844 0.162304
0.796803 0.184165 0.170130
0.816710 0.187338 0.173539
0.015334 0.032108 0.018698
0.040226 0.043157 0.018855
0.092179 0.057474 0.025533
0.163688 0.077609 0.041148
0.251500 0.097794 0.057590
0.342155 0.115712 0.073839
0.417749 0.130390 0.088848
0.482820 0.141925 0.102703
0.542378 0.151315 0.115345
0.594630 0.160492 0.126821
0.640860 0.169120 0.137291
0.683054 0.177618 0.147189
0.722390 0.186342 0.156134
0.764361 0.196569 0.165050
0.803681 0.205575 0.173175
0.823743 0.208466 0.176555
0.034090 0.070371 0.044021
0.046681 0.080876 0.047371
0.099076 0.095040 0.044738
0.162330 0.114338 0.050392
0.237589 0.135523 0.064712
0.317750 0.152959 0.077805
0.393850 0.167216 0.091189
0.462372 0.179745 0.105331
0.528621 0.188809 0.118713
0.588674 0.195141 0.130641
0.641335 0.200201 0.141034
0.692492 0.207949 0.151772
0.740631 0.217104 0.162302
0.785922 0.226581 0.171944
0.827333 0.235453 0.180427
0.847349 0.238159 0.183796
0.055177 0.112732 0.073643
0.065625 0.121051 0.077976
0.093978 0.137327 0.073655
0.161384 0.150021 0.071758
0.231283 0.172240 0.074160
0.306493 0.193233 0.086808
0.380705 0.209701 0.099236
0.451354 0.222470 0.112503
0.520466 0.231673 0.125789
0.584279 0.237915 0.137876
0.639929 0.242435 0.148225
0.694858 0.248562 0.158873
0.748716 0.254882 0.169308
0.798419 0.260374 0.178783
0.842156 0.268250 0.187530
0.862233 0.270807 0.190848
0.076938 0.156104 0.105030
0.086698 0.163846 0.109864
0.107491 0.179037 0.109253
0.152559 0.195191 0.101612
0.224752 0.207067 0.100032
0.299556 0.229168 0.096285
0.373181 0.249266 0.109308
0.446346 0.264902 0.122518
0.516862 0.276125 0.135678
0.582469 0.283742 0.147585
0.640505 0.289621 0.158120
0.697170 0.296444 0.168816
0.752371 0.301318 0.178705
0.805854 0.302655 0.187533
0.853169 0.308180 0.196239
0.873290 0.310916 0.199558
0.098150 0.198482 0.136396
0.107180 0.206060 0.141607
0.126299 0.222107 0.145381
0.159583 0.240938 0.137753
0.216297 0.253443 0.130884
0.292466 0.264609 0.126310
0.371881 0.286035 0.119523
0.445951 0.305486 0.133687
0.517529 0.320177 0.147461
0.584036 0.330639 0.159603
0.644416 0.339491 0.170731
0.702924 0.349284 0.181967
0.759153 0.355254 0.191908
0.814175 0.354494 0.199917
0.864030 0.356434 0.207709
0.883880 0.359402 0.210952
0.118243 0.239164 0.166974
0.129609 0.250103 0.174780
0.145746 0.264511 0.179998
0.170723 0.282874 0.177095
0.215053 0.300601 0.166156
0.283233 0.311369 0.160924
0.366807 0.323498 0.150898
0.447413 0.344020 0.145325
0.520895 0.362344 0.159927
0.588776 0.375940 0.172880
0.650983 0.386746 0.184475
0.710993 0.398793 0.196290
0.768488 0.408780 0.207011
0.824825 0.409871 0.215150
0.876813 0.410013 0.222387
0.896790 0.413271 0.225551
0.139966 0.282963 0.200439
0.151959 0.295046 0.209268
0.167687 0.310001 0.216264
0.186334 0.324784 0.215853
0.217018 0.344439 0.209288
0.272675 0.360880 0.196811
0.357170 0.370398 0.192602
0.443987 0.382776 0.176736
0.525366 0.402723 0.172868
0.595821 0.419353 0.186670
0.659679 0.432251 0.198929
0.720739 0.445122 0.210825
0.778928 0.457641 0.222024
0.836914 0.463704 0.231436
0.891248 0.468983 0.239983
0.910913 0.472513 0.243033
0.163759 0.331157 0.237726
0.177687 0.345955 0.248686
0.195996 0.364598 0.258417
0.210653 0.376310 0.258938
0.228950 0.387946 0.253509
0.268153 0.407289 0.241679
0.343431 0.421807 0.227398
0.444865 0.429047 0.224028
0.526395 0.444102 0.203570
0.603983 0.462807 0.201426
0.670262 0.478329 0.214098
0.732558 0.491895 0.226253
0.791567 0.505486 0.237691
0.850987 0.516568 0.248463
0.907582 0.528025 0.258734
0.927328 0.531696 0.261697
0.189947 0.384875 0.279718
0.207713 0.404675 0.294661
0.226506 0.421648 0.302738
0.242310 0.433458 0.302460
0.253695 0.440005 0.298281
0.276021 0.451735 0.289016
0.334688 0.471941 0.271329
0.431490 0.485339 0.260646
0.532205 0.494245 0.255624
0.609776 0.508484 0.233505
0.683587 0.526351 0.231523
0.747522 0.541736 0.242876
0.807591 0.556644 0.254998
0.867636 0.569670 0.266236
0.925117 0.583843 0.276968
0.944623 0.587702 0.279904
0.218615 0.442339 0.325516
0.238115 0.462051 0.340272
0.252629 0.473534 0.345175
0.264202 0.481035 0.344169
0.274680 0.487311 0.341120
0.292241 0.498626 0.336129
0.336375 0.520726 0.321133
0.418722 0.540850 0.303232
0.529046 0.551760 0.297884
0.625265 0.563378 0.284818
0.694583 0.575591 0.265524
0.764058 0.592154 0.262588
0.825450 0.607619 0.272205
0.885460 0.621857 0.284157
0.943634 0.637829 0.295199
0.962577 0.641683 0.298115
0.246147 0.495572 0.368469
0.263869 0.513059 0.381557
0.274514 0.521005 0.385303
0.281615 0.525271 0.385292
0.292343 0.533701 0.386317
0.313453 0.549212 0.384256
0.353796 0.574120 0.372915
0.417777 0.596487 0.352772
0.519767 0.612493 0.338420
0.635751 0.620189 0.335744
0.712124 0.631560 0.316350
0.775357 0.640650 0.296951
0.841461 0.656034 0.293144
0.903165 0.670564 0.300296
0.960628 0.684679 0.310847
0.979894 0.688475 0.313718
0.267902 0.540847 0.405181
0.280762 0.554102 0.415745
0.288587 0.559984 0.419431
0.295214 0.564204 0.421224
0.309421 0.577834 0.427980
0.335949 0.602508 0.435273
0.376555 0.630608 0.427115
0.436458 0.656688 0.405202
0.528125 0.674148 0.383978
0.636459 0.681765 0.375285
0.731241 0.686725 0.369373
0.795268 0.695371 0.344922
0.851724 0.700540 0.325047
0.918904 0.715108 0.320127
0.976852 0.725613 0.324003
0.995101 0.729282 0.327030
0.286511 0.582043 0.438685
0.297078 0.594051 0.448716
0.306950 0.603483 0.456020
0.317476 0.612759 0.462164
0.333979 0.629947 0.472754
0.364419 0.657375 0.481086
0.405916 0.689767 0.478462
0.466689 0.720029 0.457189
0.550157 0.738717 0.432435
0.643735 0.744121 0.416184
0.741994 0.744439 0.410125
0.816925 0.748187 0.394771
0.874625 0.754310 0.370025
0.930537 0.757474 0.349655
0.991384 0.767335 0.343044
1.010540 0.771245 0.343586
0.313212 0.635734 0.482920
0.321324 0.644979 0.490769
0.331463 0.655829 0.499548
0.344214 0.668511 0.509045
0.362747 0.686231 0.519702
0.392977 0.714360 0.530097
0.437725 0.748957 0.526924
0.493558 0.780069 0.508873
0.573502 0.803732 0.483313
0.661989 0.812683 0.464245
0.756724 0.814173 0.454297
0.842266 0.813625 0.448538
0.902785 0.815749 0.426406
0.962596 0.819010 0.398761
1.002227 0.814581 0.377986
1.022898 0.819062 0.375827
0.344055 0.692081 0.529987
0.353280 0.701444 0.537731
0.359850 0.707060 0.541838
0.370657 0.717184 0.548928
0.388066 0.733672 0.558894
0.419983 0.761434 0.566567
0.459206 0.790835 0.562181
0.511399 0.820809 0.544964
0.585804 0.847167 0.520126
0.668882 0.861588 0.501981
0.755109 0.866883 0.489978
0.838487 0.867724 0.485202
0.912013 0.866541 0.478083
0.968936 0.862782 0.446841
1.007239 0.862149 0.428270
1.026564 0.862186 0.419156
0.000000 0.000674 0.027470
0.028470 0.004442 0.032375
0.080566 0.024073 0.040090
0.157804 0.045764 0.057238
0.252171 0.066634 0.074093
0.348444 0.086093 0.089185
0.427031 0.103075 0.103151
0.493635 0.117192 0.116041
0.550723 0.129558 0.127848
0.599206 0.140855 0.138767
0.643362 0.151497 0.149127
0.684997 0.161268 0.158679
0.723667 0.169817 0.167214
0.760986 0.177614 0.174938
0.796840 0.184629 0.182629
0.816970 0.187793 0.185814
0.012391 0.035323 0.028712
0.034581 0.043960 0.035271
0.084379 0.058573 0.046033
0.147613 0.074564 0.057901
0.227937 0.091133 0.070259
0.317406 0.107474 0.082515
0.398793 0.122774 0.095824
0.468104 0.135807 0.109216
0.531553 0.146895 0.122063
0.588258 0.156719 0.134059
0.636767 0.165049 0.144804
0.680072 0.173541 0.154827
0.721742 0.182530 0.164190
0.764288 0.192352 0.172913
0.802824 0.200448 0.180502
0.822648 0.203191 0.183550
0.038063 0.072883 0.044917
0.051474 0.079625 0.054507
0.087068 0.095170 0.056690
0.148484 0.111550 0.064868
0.218798 0.129789 0.076058
0.298755 0.146104 0.086124
0.377862 0.160991 0.098117
0.449335 0.175146 0.112041
0.518026 0.186634 0.125788
0.581463 0.194401 0.138234
0.637002 0.199722 0.148839
0.688964 0.206158 0.159224
0.738084 0.213976 0.169463
0.784236 0.223333 0.178987
0.826591 0.232423 0.187270
0.846649 0.235000 0.190406
0.058593 0.113585 0.075314
0.068030 0.118547 0.081621
0.089029 0.133646 0.085476
0.148100 0.148032 0.082012
0.217813 0.168453 0.085227
0.291885 0.188128 0.095751
0.366825 0.204804 0.106717
0.439995 0.219018 0.119564
0.510840 0.230605 0.133092
0.577493 0.238566 0.145599
0.635637 0.243257 0.156144
0.691214 0.247665 0.166268
0.745793 0.252615 0.176222
0.796180 0.257845 0.185402
0.840797 0.265995 0.194044
0.860645 0.268470 0.197103
0.079595 0.156182 0.106690
0.087398 0.160822 0.111667
0.104706 0.174112 0.117180
0.140171 0.192199 0.110042
0.212627 0.204111 0.108873
0.287300 0.225565 0.104976
0.361359 0.245436 0.116527
0.436195 0.261822 0.129207
0.508617 0.274724 0.142668
0.576360 0.283506 0.155002
0.636606 0.289517 0.165778
0.693656 0.294780 0.175960
0.749445 0.298720 0.185371
0.803326 0.300292 0.193885
0.851195 0.305635 0.202397
0.871099 0.308218 0.205442
0.099726 0.197852 0.137516
0.106266 0.202562 0.141847
0.122789 0.216350 0.149430
0.150735 0.235828 0.145985
0.200600 0.250837 0.136622
0.279602 0.261506 0.134554
0.360048 0.282813 0.126248
0.436107 0.302663 0.139956
0.510497 0.318690 0.154258
0.579155 0.329960 0.166832
0.641334 0.338292 0.178043
0.699739 0.346041 0.188580
0.756294 0.351948 0.198260
0.811337 0.352684 0.206210
0.861630 0.354573 0.213920
0.881510 0.357481 0.216888
0.119011 0.238276 0.167671
0.127010 0.245724 0.173857
0.141563 0.258793 0.181982
0.163294 0.276317 0.183483
0.202054 0.296671 0.173486
0.266231 0.310243 0.165792
0.354995 0.322027 0.159987
0.438687 0.342496 0.152489
0.514485 0.361328 0.167087
0.584408 0.375400 0.180281
0.648284 0.386078 0.191849
0.708431 0.396262 0.202907
0.766196 0.405403 0.213185
0.822452 0.408512 0.221488
0.874441 0.409743 0.228761
0.894518 0.412838 0.231629
0.139565 0.280712 0.199968
0.147884 0.289355 0.206927
0.161215 0.302308 0.215764
0.179816 0.318253 0.220125
0.208041 0.339295 0.216842
0.259163 0.358910 0.203491
0.342626 0.371006 0.197428
0.436083 0.382623 0.185099
0.519552 0.402472 0.180198
0.591625 0.419289 0.193964
0.657099 0.432135 0.206229
0.718226 0.443747 0.217598
0.777132 0.455363 0.228318
0.834884 0.462808 0.237712
0.888732 0.468963 0.246205
0.908498 0.472213 0.249003
0.161800 0.326958 0.235480
0.169030 0.334759 0.241745
0.184954 0.351644 0.253838
0.199866 0.364847 0.258989
0.221634 0.381708 0.258237
0.259326 0.404097 0.248786
0.331984 0.421812 0.233201
0.436093 0.430631 0.230100
0.522242 0.445220 0.211591
0.601062 0.463421 0.208933
0.667703 0.478704 0.221435
0.730040 0.491789 0.233099
0.789695 0.504351 0.243930
0.848773 0.515733 0.254348
0.904732 0.527315 0.264342
0.924592 0.530937 0.267112
0.186542 0.378757 0.275732
0.195502 0.389137 0.284041
0.209739 0.403459 0.294500
0.226385 0.417621 0.300918
0.244216 0.431648 0.301637
0.270088 0.447998 0.294781
0.326537 0.471442 0.278104
0.424539 0.487241 0.265903
0.529604 0.496025 0.262462
0.607319 0.509708 0.240479
0.681166 0.527016 0.238227
0.744969 0.541891 0.249210
0.805481 0.556295 0.261041
0.865234 0.569534 0.272103
0.922343 0.582951 0.282232
0.941980 0.586680 0.284948
0.213472 0.434350 0.319616
0.224081 0.445757 0.329027
0.236273 0.456358 0.336864
0.248017 0.465213 0.340997
0.265001 0.478390 0.343177
0.286374 0.494156 0.341287
0.329943 0.518821 0.328087
0.410370 0.541778 0.309426
0.522565 0.554460 0.302790
0.623170 0.565236 0.291505
0.692892 0.576391 0.271428
0.761459 0.592222 0.268487
0.822799 0.607613 0.277927
0.883110 0.622030 0.289804
0.941075 0.636476 0.300068
0.960195 0.640393 0.302803
0.241428 0.489374 0.363827
0.254296 0.502852 0.374994
0.264845 0.511360 0.381062
0.271616 0.515198 0.382301
0.284100 0.524838 0.385310
0.308231 0.543813 0.386461
0.348615 0.570941 0.378063
0.410805 0.595640 0.358585
0.512400 0.613751 0.343222
0.631314 0.621736 0.340207
0.710291 0.632359 0.321659
0.772660 0.640673 0.302126
0.838728 0.656249 0.298553
0.901284 0.671367 0.306053
0.959544 0.685487 0.316439
0.978710 0.689180 0.319153
0.266101 0.539586 0.404536
0.279642 0.554351 0.416922
0.288396 0.561176 0.421927
0.294827 0.564775 0.423536
0.306796 0.574252 0.427828
0.332416 0.597631 0.435754
0.373399 0.627039 0.429495
0.431029 0.654600 0.409969
0.520175 0.674810 0.389159
0.629806 0.684184 0.379684
0.728889 0.688880 0.374950
0.792316 0.695740 0.350027
0.848441 0.700257 0.329923
0.917474 0.715992 0.325563
0.976933 0.727353 0.329724
0.994973 0.731079 0.332624
0.286045 0.582334 0.439225
0.295291 0.593033 0.448453
0.307345 0.605528 0.458563
0.317515 0.614121 0.464728
0.330731 0.625847 0.471759
0.360339 0.652737 0.481790
0.402547 0.686581 0.482498
0.461870 0.718956 0.463605
0.544450 0.740448 0.439053
0.638309 0.747980 0.422065
0.737063 0.747969 0.415231
0.813767 0.749486 0.400729
0.871977 0.754832 0.374960
0.929294 0.758640 0.354665
0.991595 0.768781 0.348436
1.010748 0.772782 0.348917
0.310795 0.632932 0.480908
0.317908 0.641411 0.488163
0.328299 0.652909 0.497869
0.340198 0.664833 0.507276
0.358800 0.682859 0.519487
0.389095 0.711544 0.532628
0.432471 0.746184 0.532940
0.487206 0.778722 0.516573
0.566510 0.804343 0.489584
0.655698 0.814793 0.469361
0.750656 0.816289 0.458364
0.839507 0.815972 0.452913
0.902515 0.818195 0.432109
0.962216 0.819876 0.403009
1.003658 0.816704 0.383770
1.024300 0.821137 0.381543
0.337573 0.683519 0.523129
0.345863 0.692933 0.531202
0.353285 0.699892 0.536941
0.363684 0.709900 0.544659
0.382305 0.728392 0.557391
0.414022 0.756484 0.568449
0.452970 0.786979 0.567604
0.507338 0.820429 0.551418
0.582162 0.848511 0.525755
0.665926 0.863788 0.506824
0.752991 0.868990 0.493820
0.837443 0.869203 0.488389
0.912238 0.868254 0.481985
0.970470 0.866171 0.453453
1.009528 0.865562 0.435672
1.028871 0.865508 0.426680
0.000378 0.008846 0.076661
0.021578 0.008982 0.075891
0.075128 0.018872 0.085956
0.144429 0.044644 0.095998
0.227991 0.064895 0.112646
0.317584 0.083146 0.127571
0.400053 0.100185 0.138792
0.471316 0.114957 0.147962
0.537454 0.128098 0.157313
0.595251 0.140547 0.165927
0.644220 0.151912 0.173960
0.688648 0.162742 0.181542
0.730179 0.172356 0.189652
0.768918 0.180685 0.196603
0.804049 0.187424 0.203438
0.824397 0.190564 0.206504
0.008947 0.038347 0.074084
0.028427 0.042387 0.072655
0.074283 0.054086 0.081999
0.134572 0.072045 0.089952
0.208453 0.088240 0.102283
0.292817 0.103044 0.114362
0.375079 0.118794 0.125321
0.447614 0.133364 0.134949
0.516344 0.145118 0.144109
0.579644 0.155296 0.153671
0.634522 0.165159 0.163652
0.683075 0.174881 0.173275
0.728612 0.184502 0.182371
0.771065 0.193560 0.190235
0.807937 0.200522 0.196795
0.827874 0.203194 0.199722
0.027307 0.078307 0.070823
0.044371 0.081964 0.072086
0.078409 0.093827 0.081081
0.136217 0.109521 0.091360
0.206775 0.123320 0.099729
0.285427 0.135712 0.106963
0.364660 0.149666 0.115919
0.437663 0.164062 0.126382
0.507975 0.176330 0.136842
0.573784 0.185653 0.147246
0.632591 0.191983 0.157242
0.686190 0.198024 0.167107
0.735247 0.204534 0.176516
0.780308 0.212707 0.185300
0.820398 0.220485 0.192779
0.840030 0.222788 0.195506
0.058937 0.117672 0.076750
0.070414 0.120334 0.079027
0.092920 0.131837 0.094696
0.134879 0.150418 0.101088
0.208350 0.167404 0.106979
0.282249 0.183719 0.113779
0.355787 0.198211 0.121307
0.428612 0.211965 0.131159
0.500797 0.224722 0.142544
0.569151 0.234522 0.153936
0.630589 0.239920 0.164353
0.688317 0.243527 0.174085
0.743748 0.247014 0.183041
0.794773 0.251758 0.191561
0.838426 0.259147 0.199638
0.858350 0.261443 0.202412
0.084218 0.158625 0.104175
0.092168 0.161268 0.109847
0.107191 0.170735 0.124146
0.133730 0.190198 0.131959
0.200305 0.205748 0.123534
0.279015 0.224555 0.121942
0.353088 0.242391 0.131590
0.426700 0.257310 0.141042
0.499460 0.270599 0.152325
0.568660 0.280909 0.163627
0.631605 0.287373 0.173857
0.690635 0.291968 0.183386
0.747254 0.294742 0.191902
0.801460 0.295864 0.199697
0.849131 0.300903 0.207711
0.869011 0.303264 0.210527
0.105001 0.199215 0.137508
0.111127 0.202140 0.142490
0.122094 0.211361 0.153301
0.146553 0.230798 0.162780
0.186427 0.250599 0.151775
0.271585 0.262650 0.147836
0.353713 0.282390 0.140767
0.428937 0.300452 0.152220
0.502921 0.315775 0.163927
0.572678 0.327537 0.175061
0.636729 0.335779 0.185472
0.696784 0.342339 0.195215
0.754236 0.347460 0.203925
0.809503 0.349133 0.211622
0.858762 0.351005 0.218892
0.878946 0.353696 0.221615
0.124421 0.239729 0.169830
0.130027 0.244217 0.175095
0.139044 0.253605 0.183939
0.158853 0.270346 0.194006
0.192477 0.293797 0.188240
0.252763 0.311254 0.176012
0.349258 0.322943 0.171123
0.433217 0.342043 0.163266
0.509044 0.359866 0.176234
0.579741 0.373806 0.188121
0.644459 0.384104 0.198795
0.705730 0.392903 0.209028
0.764553 0.401432 0.218588
0.821123 0.405830 0.226793
0.871689 0.407740 0.233819
0.891618 0.410595 0.236500
0.143588 0.280994 0.202050
0.149962 0.288162 0.208762
0.156855 0.296758 0.215589
0.174941 0.312303 0.226166
0.200563 0.334006 0.228826
0.247517 0.357643 0.215102
0.331747 0.372623 0.205693
0.432767 0.384291 0.195910
0.516983 0.403271 0.190737
0.588538 0.419294 0.203058
0.653757 0.431754 0.214004
0.715539 0.442524 0.224254
0.775461 0.452800 0.233913
0.833510 0.460831 0.242980
0.885445 0.466509 0.250777
0.905278 0.469577 0.253393
0.165030 0.326975 0.237675
0.169831 0.332834 0.242747
0.179271 0.344960 0.252200
0.193564 0.358009 0.261560
0.215214 0.375714 0.266602
0.251549 0.400797 0.260485
0.322320 0.422441 0.242326
0.430235 0.433174 0.237933
0.520624 0.447435 0.220955
0.598635 0.464444 0.217481
0.664863 0.479322 0.228773
0.727580 0.491834 0.239671
0.788520 0.503786 0.249788
0.847395 0.514866 0.259807
0.901527 0.524407 0.268498
0.921298 0.527717 0.271067
0.188249 0.377154 0.276529
0.193412 0.384381 0.282417
0.200534 0.393278 0.289184
0.216993 0.407783 0.300083
0.235250 0.422512 0.305738
0.263350 0.443026 0.303242
0.318396 0.470550 0.287205
0.417654 0.489368 0.272409
0.527386 0.498500 0.270315
0.605998 0.511873 0.248614
0.679459 0.528318 0.245748
0.742895 0.542510 0.255934
0.803496 0.556374 0.266667
0.863732 0.569023 0.276985
0.919280 0.579926 0.285965
0.938741 0.583463 0.288450
0.212631 0.429476 0.317373
0.218766 0.437555 0.324020
0.226084 0.444948 0.329878
0.236558 0.453023 0.336024
0.254170 0.467657 0.343685
0.279890 0.488532 0.346643
0.324125 0.516703 0.336365
0.403802 0.542998 0.316696
0.517939 0.557096 0.308502
0.622098 0.567406 0.298301
0.691628 0.577731 0.277577
0.759496 0.592643 0.274014
0.820755 0.607644 0.282783
0.881293 0.621912 0.294624
0.938617 0.634010 0.303647
0.957476 0.637650 0.306188
0.238467 0.482236 0.359528
0.245942 0.491861 0.367400
0.254328 0.499971 0.373851
0.262276 0.505031 0.377682
0.275482 0.515591 0.383956
0.301900 0.537924 0.390145
0.343110 0.568089 0.385399
0.404681 0.595527 0.365515
0.506229 0.615285 0.348344
0.627120 0.623453 0.344610
0.708641 0.633369 0.326717
0.770991 0.641068 0.306861
0.836653 0.656620 0.303245
0.899656 0.671529 0.310848
0.957722 0.684325 0.320191
0.976799 0.687760 0.322793
0.263869 0.534366 0.401503
0.273797 0.547065 0.412086
0.283068 0.556154 0.419422
0.290122 0.560283 0.422210
0.300824 0.568336 0.426958
0.326030 0.591641 0.437676
0.368154 0.623626 0.435392
0.425051 0.653605 0.417492
0.513481 0.676436 0.395728
0.623873 0.687025 0.384797
0.726809 0.691543 0.380364
0.790547 0.696799 0.354825
0.845893 0.700624 0.334234
0.915434 0.716192 0.329848
0.976625 0.728031 0.334232
0.994589 0.731828 0.337039
0.284715 0.578442 0.437114
0.290294 0.586366 0.443588
0.301041 0.598990 0.454127
0.312669 0.609680 0.462599
0.325171 0.620354 0.469914
0.354894 0.647625 0.483837
0.397563 0.683267 0.488250
0.456493 0.717758 0.471253
0.538088 0.741752 0.445664
0.632269 0.751435 0.427984
0.732731 0.751778 0.420317
0.811651 0.751663 0.406498
0.869498 0.755173 0.379075
0.927929 0.759198 0.358636
0.991678 0.770477 0.353167
1.010720 0.774183 0.353474
0.310397 0.631008 0.480220
0.315321 0.638221 0.486242
0.323279 0.647919 0.494228
0.335570 0.660416 0.504775
0.353966 0.678679 0.518475
0.384056 0.707470 0.534477
0.426461 0.742142 0.538118
0.480343 0.776749 0.524758
0.558977 0.804524 0.496010
0.648602 0.816798 0.474544
0.744402 0.819132 0.462434
0.835742 0.818377 0.457112
0.901796 0.820183 0.437001
0.961914 0.821028 0.407188
1.004272 0.817997 0.388058
1.024657 0.822162 0.386204
0.333498 0.677319 0.518530
0.339298 0.684748 0.524887
0.347915 0.694839 0.533213
0.358677 0.705454 0.542069
0.375771 0.722538 0.555023
0.406719 0.750863 0.569780
0.445342 0.782485 0.573012
0.499132 0.817401 0.558977
0.575390 0.848641 0.532128
0.660386 0.865518 0.511812
0.748847 0.871517 0.497963
0.834652 0.871766 0.491976
0.911313 0.869941 0.485746
0.970896 0.868656 0.459384
1.010594 0.868327 0.442719
1.029822 0.868035 0.433844
0.008274 0.015826 0.139231
0.020773 0.015024 0.132437
0.067008 0.019430 0.138145
0.135148 0.033241 0.151575
0.211854 0.060276 0.164575
0.294632 0.080058 0.180175
0.376354 0.097495 0.193182
0.451321 0.114335 0.202054
0.522345 0.128834 0.209650
0.587595 0.141861 0.215947
0.645277 0.153877 0.221164
0.695432 0.165052 0.226427
0.740609 0.175221 0.231894
0.781212 0.183868 0.235906
0.817288 0.190926 0.241438
0.837472 0.194102 0.244645
0.011306 0.045103 0.128828
0.026034 0.045727 0.122973
0.062605 0.051111 0.127043
0.120820 0.063943 0.137983
0.190418 0.083742 0.147272
0.268130 0.100633 0.160670
0.349589 0.117954 0.174706
0.427529 0.135233 0.184480
0.500537 0.148685 0.191322
0.568548 0.158657 0.197826
0.630165 0.168006 0.204979
0.685804 0.177752 0.212523
0.736212 0.187582 0.219023
0.779642 0.195932 0.223218
0.816662 0.202857 0.227651
0.836899 0.205515 0.230668
0.022153 0.085041 0.120618
0.037253 0.084515 0.117243
0.064819 0.090182 0.122724
0.119706 0.103010 0.136426
0.189365 0.119863 0.143273
0.264895 0.132601 0.151447
0.343428 0.147065 0.161865
0.419578 0.162422 0.170950
0.492660 0.175355 0.177591
0.561497 0.184865 0.183155
0.624927 0.191501 0.190186
0.683986 0.197987 0.198398
0.737940 0.204731 0.204599
0.785122 0.211694 0.209501
0.825916 0.218544 0.215102
0.845993 0.220784 0.217826
0.043644 0.123825 0.117447
0.055986 0.123108 0.114932
0.077747 0.130913 0.120421
0.120657 0.147766 0.133304
0.190409 0.165240 0.144228
0.268335 0.177680 0.150223
0.344090 0.188660 0.155244
0.418442 0.201238 0.161837
0.491343 0.213583 0.168684
0.560629 0.223588 0.175169
0.624312 0.229015 0.182116
0.684859 0.232250 0.189624
0.742074 0.235010 0.195213
0.793913 0.239660 0.200615
0.836153 0.245853 0.207358
0.855985 0.247748 0.209829
0.075532 0.162947 0.121854
0.085314 0.164263 0.122064
0.104621 0.173173 0.126936
0.135589 0.187541 0.137901
0.180592 0.210284 0.157783
0.267616 0.226359 0.158646
0.344367 0.240434 0.164365
0.418564 0.252265 0.169219
0.491763 0.264137 0.175627
0.561577 0.274639 0.182822
0.625831 0.281431 0.190275
0.686728 0.285964 0.197734
0.745082 0.288231 0.203188
0.800585 0.288991 0.208103
0.847292 0.293169 0.214932
0.866965 0.295205 0.217402
0.104819 0.203066 0.134543
0.112894 0.205387 0.137451
0.125149 0.211955 0.145621
0.149440 0.227933 0.169603
0.179864 0.249295 0.188034
0.256602 0.268897 0.172213
0.346183 0.284543 0.170322
0.422508 0.299892 0.178944
0.496933 0.312965 0.185404
0.566859 0.324137 0.192707
0.631567 0.332519 0.200404
0.692774 0.338595 0.207846
0.751796 0.342718 0.213978
0.807931 0.344178 0.219480
0.856219 0.345980 0.225566
0.876014 0.348258 0.228020
0.128908 0.243425 0.165217
0.134249 0.245590 0.169763
0.144537 0.253758 0.180963
0.158912 0.265842 0.197723
0.188437 0.289684 0.215464
0.235870 0.314338 0.200716
0.342508 0.327540 0.194183
0.429247 0.344328 0.186522
0.505635 0.360141 0.195871
0.575558 0.372583 0.203700
0.639919 0.382534 0.211619
0.701875 0.390215 0.219431
0.762196 0.396874 0.226628
0.819101 0.401501 0.233408
0.868481 0.404053 0.239680
0.888127 0.406601 0.242042
0.149181 0.283299 0.200045
0.154885 0.288513 0.206737
0.160743 0.293853 0.213964
0.173073 0.306570 0.228131
0.196227 0.327822 0.244994
0.237689 0.355715 0.239225
0.319012 0.376225 0.221902
0.430086 0.387808 0.213071
