LUT_pack/webcam_color_corrected.cube
LUT_3D_SIZE 6
0.000000 0.000000 0.000000
0.175357 0.048943 0.038418
0.454740 0.107641 0.093101
0.607652 0.143164 0.128335
0.723592 0.169246 0.154590
0.816710 0.187338 0.173539
0.055177 0.112732 0.073643
0.161384 0.150021 0.071758
0.380705 0.209701 0.099236
0.584279 0.237915 0.137876
0.748716 0.254882 0.169308
0.862233 0.270807 0.190848
0.118243 0.239164 0.166974
0.170723 0.282874 0.177095
0.366807 0.323498 0.150898
0.588776 0.375940 0.172880
0.768488 0.408780 0.207011
0.896790 0.413271 0.225551
0.189947 0.384875 0.279718
0.242310 0.433458 0.302460
0.334688 0.471941 0.271329
0.609776 0.508484 0.233505
0.807591 0.556644 0.254998
0.944623 0.587702 0.279904
0.267902 0.540847 0.405181
0.295214 0.564204 0.421224
0.376555 0.630608 0.427115
0.636459 0.681765 0.375285
0.851724 0.700540 0.325047
0.995101 0.729282 0.327030
0.344055 0.692081 0.529987
0.370657 0.717184 0.548928
0.459206 0.790835 0.562181
0.668882 0.861588 0.501981
0.912013 0.866541 0.478083
1.026564 0.862186 0.419156
0.008274 0.015826 0.139231
0.135148 0.033241 0.151575
0.376354 0.097495 0.193182
0.587595 0.141861 0.215947
0.740609 0.175221 0.231894
0.837472 0.194102 0.244645
0.043644 0.123825 0.117447
0.120657 0.147766 0.133304
0.344090 0.188660 0.155244
0.560629 0.223588 0.175169
0.742074 0.235010 0.195213
0.855985 0.247748 0.209829
0.128908 0.243425 0.165217
0.158912 0.265842 0.197723
0.342508 0.327540 0.194183
0.575558 0.372583 0.203700
0.762196 0.396874 0.226628
0.888127 0.406601 0.242042
0.193001 0.377398 0.278176
0.211977 0.400909 0.299265
0.309155 0.468783 0.303949
0.605839 0.515045 0.259993
0.801553 0.556249 0.273694
0.935888 0.580353 0.292994
0.264525 0.530480 0.400449
0.282950 0.552596 0.418225
0.362035 0.618961 0.444705
0.618116 0.689636 0.390600
0.844335 0.701677 0.339650
0.993508 0.732179 0.341979
0.333549 0.674816 0.517942
0.351800 0.698658 0.537337
0.434684 0.775310 0.578613
0.651588 0.867485 0.518531
0.909060 0.872871 0.491176
1.030396 0.871464 0.443258
0.019089 0.044928 0.303929
0.112804 0.041628 0.316438
0.342098 0.072621 0.370368
0.559458 0.144362 0.386223
0.741614 0.183003 0.396517
0.858508 0.203535 0.411237
0.038380 0.152814 0.266879
0.078582 0.139434 0.269951
0.276298 0.170021 0.324827
0.532324 0.230325 0.339478
0.731711 0.247929 0.359045
0.854078 0.254786 0.367508
0.092897 0.255872 0.248898
0.124461 0.268691 0.257255
0.274130 0.335025 0.315866
0.550799 0.369392 0.328778
0.751150 0.378352 0.321807
0.878988 0.374830 0.313578
0.197390 0.386788 0.270779
0.216434 0.399210 0.281365
0.294124 0.449976 0.354009
0.596550 0.533398 0.348007
0.793397 0.558248 0.344369
0.928057 0.575544 0.344233
0.280057 0.533233 0.398303
0.288063 0.540744 0.409775
0.335215 0.586923 0.463611
0.584288 0.701637 0.437240
0.843695 0.712721 0.383324
0.986478 0.737726 0.378246
0.348547 0.675772 0.523902
0.360292 0.693424 0.541218
0.403448 0.749874 0.591800
0.591918 0.867082 0.566921
0.892787 0.886987 0.517430
1.029195 0.885901 0.485908
0.029319 0.082133 0.456309
0.091526 0.068066 0.459035
0.313036 0.087329 0.512779
0.528963 0.125473 0.536751
0.729733 0.190676 0.564545
0.854478 0.210046 0.578488
0.043942 0.182771 0.438353
0.069265 0.157293 0.437980
0.210273 0.162392 0.466720
0.502153 0.218896 0.514603
0.725867 0.265974 0.536426
0.851165 0.270609 0.551663
0.075377 0.282603 0.417671
0.093910 0.275635 0.413183
0.174422 0.290451 0.442088
0.516334 0.360618 0.519875
0.737090 0.390092 0.517136
0.873545 0.390572 0.528281
0.150553 0.403443 0.393622
0.165609 0.408978 0.395025
0.232057 0.447793 0.426148
0.544775 0.560990 0.522636
0.768967 0.570407 0.517041
0.911092 0.563184 0.500672
0.270470 0.551018 0.421391
0.283160 0.557938 0.421742
0.324931 0.585202 0.437587
0.535854 0.703582 0.612526
0.826129 0.738218 0.526346
0.968986 0.749278 0.520321
0.363838 0.691651 0.509278
0.375318 0.703949 0.523265
0.422278 0.751414 0.580172
0.574718 0.862156 0.708259
0.850292 0.916308 0.611284
1.036235 0.913493 0.574793
0.037391 0.105725 0.589900
0.078680 0.081307 0.592684
0.271917 0.096382 0.644289
0.514869 0.118509 0.688750
0.718761 0.175872 0.693182
0.846575 0.204973 0.714904
0.053621 0.217096 0.574732
0.072218 0.181037 0.580542
0.184603 0.179096 0.610369
0.485895 0.232728 0.682592
0.720543 0.276821 0.689121
0.849832 0.279164 0.707725
0.076188 0.306982 0.565843
0.095570 0.303047 0.568541
0.149233 0.294145 0.584782
0.453308 0.349602 0.683064
0.732508 0.393838 0.700370
0.871359 0.402998 0.704934
0.133520 0.439090 0.549857
0.146397 0.439117 0.551898
0.178858 0.442864 0.563989
0.399772 0.522494 0.671009
0.753713 0.578216 0.709555
0.902797 0.586646 0.702292
0.222648 0.567994 0.546544
0.236584 0.575020 0.547856
0.266412 0.592084 0.560540
0.474709 0.709150 0.665668
0.791572 0.769253 0.728684
0.945946 0.772610 0.720204
0.341288 0.714834 0.580978
0.357627 0.729831 0.589089
0.398311 0.763732 0.611220
0.603970 0.878029 0.720671
0.792441 0.946729 0.830543
1.045560 0.956630 0.769160
0.045372 0.130229 0.720047
0.078992 0.103589 0.720772
0.250965 0.112149 0.770442
0.530167 0.136332 0.836306
0.737904 0.153647 0.855741
0.845938 0.189400 0.846747
0.061757 0.247852 0.717623
0.078610 0.210217 0.719519
0.288906 0.286351 0.802159
0.553771 0.297153 0.858674
0.738091 0.272143 0.864985
0.855355 0.285560 0.856105
0.086721 0.352763 0.715089
0.105375 0.353672 0.720908
0.165687 0.340967 0.748489
0.510582 0.403672 0.865672
0.739545 0.400656 0.884751
0.878080 0.397225 0.876787
0.133932 0.483293 0.711530
0.146909 0.482477 0.721661
0.176942 0.482100 0.734597
0.354906 0.521094 0.820805
0.726820 0.564384 0.906026
0.907133 0.590657 0.897539
0.204674 0.617781 0.714377
0.216718 0.624550 0.722368
0.238572 0.631540 0.735230
0.368040 0.695757 0.808544
0.720692 0.760568 0.912786
0.951726 0.790167 0.918967
0.301175 0.742770 0.715300
0.323223 0.758811 0.725675
0.366418 0.789398 0.749792
0.553673 0.903072 0.853633
0.837258 0.982027 0.940757
1.033398 1.051740 1.000026
